X:310
T: O TANNENBAUM O TANNENBAUM
N: E0175A
O: Europa, Mitteleuropa, Deutschland, Schlesien
R: erzaehlendes Volks - Lied, Sage, Pflanzen - Maerchen
M: 2/4
L: 1/16
K: G
D2 | G2G2G2D2 | G2G2G2
D2 | G2G2G2B2 | A4z2
G2 | B2A2B2B2 | d2c2c2
AA | dcB2AGA2 | G4z2
G2 | B2A2B2B2 | d2c2c2
AA | dcB2AGA2 | G4z2

@@@ Tune index: 3960
